!!!OTL: O MODER DE FINKEN SIND DUD
!!!ARE: Europa, Mitteleuropa, Deutschland, Rheinland, Koeln
!!!SCT: E1752
!!!YEM: Copyright 1995, estate of Helmut Schaffrath.
**kern
*ICvox
*Ivox
*M3/8
*k[b-]
*F:
=1
{4.cc
=2
8.a
16b-
8a
=3
8.g
16f
8g
=4
4f
8r}
=5
{4.cc
=6
8.a
16b-
8a
=7
8.g
16f
8g
=8
4f}
{8g
=9
8g
8g
8g
=10
8g
8g
8g
=11
8a
8cc
8a
=12
8f
8f}
{8f
=13
8g
8g
8g
=14
8g
8g
8g
=15
8a
8cc
8a
=16
8f
8f
8r}
=17
{4.cc
=18
8.a
16b-
8a
=19
8.g
16f
8g
=20
4f
8r}
=21
{4.cc
=22
8.a
16b-
8a
=23
8.g
16f
8g
=24
4f
8r}
==
!!!AGN: Scherz - Lied, Fastnacht
!!!ONB: ESAC (Essen Associative Code) Database: ERK3
!!!AMT: simple triple
!!!AIN: vox
!!!EED: Helmut Schaffrath
!!!EEV: 1.0
*-
